packages/bezier-icons/icons/calendar.svg

<svg width="24" height="24" viewBox="0 0 24 24" fill="none" xmlns="http://www.w3.org/2000/svg">
<path fill-rule="evenodd" clip-rule="evenodd" d="M4.5 21H19.5C20.3283 21 21 20.3283 21 19.5V4.5C21 3.67172 20.3283 3 19.5 3H4.5C3.67172 3 3 3.67172 3 4.5V19.5C3 20.3283 3.67172 21 4.5 21ZM5 8V19H19V8H5ZM6.6279 11.8103C6.6279 11.1273 7.1809 10.5733 7.8649 10.5733C8.5479 10.5733 9.1019 11.1273 9.1019 11.8103C9.1019 12.4943 8.5479 13.0483 7.8649 13.0483C7.1809 13.0483 6.6279 12.4943 6.6279 11.8103ZM10.7568 11.8103C10.7568 11.1273 11.3108 10.5733 11.9938 10.5733C12.6778 10.5733 13.2308 11.1273 13.2308 11.8103C13.2308 12.4943 12.6778 13.0483 11.9938 13.0483C11.3108 13.0483 10.7568 12.4943 10.7568 11.8103ZM16.1232 10.5733C15.4392 10.5733 14.8852 11.1273 14.8852 11.8103C14.8852 12.4943 15.4392 13.0483 16.1232 13.0483C16.8062 13.0483 17.3602 12.4943 17.3602 11.8103C17.3602 11.1273 16.8062 10.5733 16.1232 10.5733ZM6.6279 15.7625C6.6279 15.0795 7.1809 14.5255 7.8649 14.5255C8.5479 14.5255 9.1019 15.0795 9.1019 15.7625C9.1019 16.4465 8.5479 17.0005 7.8649 17.0005C7.1809 17.0005 6.6279 16.4465 6.6279 15.7625ZM11.9938 14.5255C11.3108 14.5255 10.7568 15.0795 10.7568 15.7625C10.7568 16.4465 11.3108 17.0005 11.9938 17.0005C12.6778 17.0005 13.2308 16.4465 13.2308 15.7625C13.2308 15.0795 12.6778 14.5255 11.9938 14.5255ZM14.8852 15.7625C14.8852 15.0795 15.4392 14.5255 16.1232 14.5255C16.8062 14.5255 17.3602 15.0795 17.3602 15.7625C17.3602 16.4465 16.8062 17.0005 16.1232 17.0005C15.4392 17.0005 14.8852 16.4465 14.8852 15.7625Z" fill="#313234"/>
</svg>

<svg xmlns="http://www.w3.org/2000/svg" width="24" height="24" fill="none" viewBox="0 0 24 24"><path fill="#313234" fill-rule="evenodd" d="M4.5 21h15a1.5 1.5 0 0 0 1.5-1.5v-15A1.5 1.5 0 0 0 19.5 3h-15A1.5 1.5 0 0 0 3 4.5v15A1.5 1.5 0 0 0 4.5 21M5 8v11h14V8zm1.628 3.81a1.237 1.237 0 1 1 2.473 0 1.237 1.237 0 0 1-2.473 0m4.129 0a1.237 1.237 0 1 1 2.474 0 1.237 1.237 0 0 1-2.474 0m5.366-1.237a1.237 1.237 0 1 0 0 2.475 1.237 1.237 0 0 0 0-2.475m-9.495 5.19a1.237 1.237 0 1 1 2.473-.001 1.237 1.237 0 0 1-2.473 0m5.366-1.238a1.237 1.237 0 1 0 0 2.475 1.237 1.237 0 0 0 0-2.475m2.891 1.237a1.237 1.237 0 1 1 2.475.001 1.237 1.237 0 0 1-2.475 0" clip-rule="evenodd"/></svg>
